packages/cfpb-design-system/src/components/cfpb-icons/icons/document-round.svg

<svg viewBox="0 0 17 19" xmlns="http://www.w3.org/2000/svg"><path d="m16.417 9.579a7.917 7.917 0 1 1 -7.917-7.917 7.917 7.917 0 0 1 7.917 7.917m-4.233-1.805h-2.925a.317.317 0 0 1 -.317-.317v-2.9h-3.782a.32.32 0 0 0 -.317.317v9.368a.32.32 0 0 0 .317.316h6.707a.317.317 0 0 0 .317-.316zm-5.585-1.562a.792.792 0 1 0 .791.792.79.79 0 0 0 -.791-.792m4.448 2.681h-5.214v.792h5.214zm0 1.69h-5.214v.792h5.214zm0 1.69h-5.214v.792h5.214zm-1.31-5.293h2.431l-2.43-2.416z"/></svg>

<svg xmlns="http://www.w3.org/2000/svg" aria-hidden="true" class="cf-icon-svg cf-icon-svg--document-round" viewBox="0 0 17 19"><path d="M16.417 9.579A7.917 7.917 0 1 1 8.5 1.662a7.917 7.917 0 0 1 7.917 7.917m-4.233-1.805H9.259a.317.317 0 0 1-.317-.317v-2.9H5.16a.32.32 0 0 0-.317.317v9.368a.32.32 0 0 0 .317.316h6.707a.317.317 0 0 0 .317-.316zM6.599 6.212a.792.792 0 1 0 .791.792.79.79 0 0 0-.791-.792m4.448 2.681H5.833v.792h5.214zm0 1.69H5.833v.792h5.214zm0 1.69H5.833v.792h5.214zM9.737 6.98h2.431l-2.43-2.416z"/></svg>
